X:1
T: The Humors of Castlelyons
C:
R:Jig
Q:180
K:G
M:6/8
L:1/16
G6 B2A2G2|d4G2 B2A2G2|A4B2 c4d2|e2f2e2 d2B2A2|G6 B2A2G2|d4G2 B2A2G2|A4B2 c4A2|B2G2E2 E4D2|
G6 B2A2G2|d4G2 B2A2G2|A4B2 c4d2|e2f2e2 d2B2A2|G6 B2A2G2|d4G2 B2A2G2|A4B2 c4A2|B2G2E2 E4D2|
g2a2g2 g2d2B2|g2a2g2 g2d2B2|A4B2 c4d2|e2f2e2 d2B2d2|g2a2g2 g2d2B2|g2a2g2 g2d2B2|A4B2 c4d2|B2G2E2 E4D2|
g2a2g2 g2d2B2|g2a2g2 g2d2B2|A4B2 c4d2|e2f2e2 d2B2d2|G6 B2A2G2|d4G2 B2A2G2|A4B2 c4A2|B2G2E2 E4D2||
